X:1106
T:Polska efter Carl Gustaf Roos
T:(SvL Sm 72)
O:Jönköping, Småland
R:Polska
B:Svenska Låtar Småland
N:Jämför med SvL Dalsland 244 och 259.
S:efter Carl Gustaf Roos
S:efter fadern
Z:Jonas Brunskog
M:3/4
L:1/8
K:D
D2 F2 A2|(Ac ec) A2-|A2 (gf ed)|(cB AG FE)|
(D2 (3FDF) (A2-|Ac) (ec A2-|A2) (g2 bg)|(ec) d2 z2||
|:df a2 f2|(ef g2) (e2|f2) d2 A2|F2 A2 D2-|
D2 a2 f2|ef g2 e2|g2 (bg) ec|A2 d2 z2:|
(:musicend:)

(:music:)
